svg/emoji_u1f4ce.svg

<svg xmlns="http://www.w3.org/2000/svg" width="128" height="128"><path d="M71.934 122.129l-.007.004c-6.088 3.515-13.17 4.441-19.944 2.626-6.785-1.818-12.467-6.164-15.978-12.245-3.51-6.08-4.437-13.163-2.619-19.948l21.421-79.92c1.293-4.92 4.463-8.792 8.927-10.89 4.113-1.943 9.09-2.285 14.024-.97C87.934 3.52 94.205 13.273 91.724 22.532L73.75 89.611c-1.503 5.633-7.266 8.48-13.719 6.77C53.91 94.74 47.4 89.023 48.83 83.664l14.707-54.865 7.306 1.958L56.15 85.613c-.308 1.148 3.668 2.874 5.846 3.457.628.169 3.833.9 4.44-1.412l17.982-67.084c1.395-5.23-2.468-10.827-8.618-12.481-3.197-.857-6.328-.68-8.82.498-2.437 1.137-4.129 3.234-4.868 5.993l-21.42 79.92a18.575 18.575 0 0 0 1.866 14.207c2.5 4.332 6.539 7.426 11.382 8.723 4.83 1.295 9.867.64 14.199-1.862 4.339-2.505 7.444-6.54 8.727-11.374l7.878-29.407 7.306 1.958-7.886 29.41c-1.806 6.789-6.149 12.46-12.23 15.97z" fill="#5b6073"/><g stroke-width=".804"><path d="M49.315 42.212c5.57-.012 10.084-5.421 10.071-12.073-.012-6.677-4.55-12.061-10.12-12.049-5.584.013-10.11 5.422-10.097 12.099.025 6.652 4.563 12.036 10.146 12.023z" fill="#e5e5e5"/><path d="M49.3 37.196c3.253-.007 5.89-3.166 5.882-7.052-.007-3.9-2.658-7.045-5.912-7.037-3.26.007-5.904 3.166-5.897 7.066.015 3.886 2.665 7.03 5.926 7.023z" fill="#2f2f2f"/></g><g stroke-width=".804"><path d="M85.47 42.212c5.571-.012 10.085-5.421 10.072-12.073-.012-6.677-4.55-12.061-10.121-12.049-5.583.013-10.109 5.422-10.096 12.099.025 6.652 4.563 12.036 10.146 12.023z" fill="#e5e5e5"/><path d="M85.455 37.196c3.254-.007 5.89-3.166 5.883-7.052-.007-3.9-2.658-7.045-5.912-7.037-3.26.007-5.904 3.166-5.897 7.066.014 3.886 2.665 7.03 5.926 7.023z" fill="#2f2f2f"/></g></svg>

<?xml version="1.0" encoding="UTF-8" standalone="no"?>
<!DOCTYPE svg PUBLIC "-//W3C//DTD SVG 1.1//EN" "http://www.w3.org/Graphics/SVG/1.1/DTD/svg11.dtd">
<svg width="100%" height="100%" viewBox="0 0 128 128" version="1.1" xmlns="http://www.w3.org/2000/svg" xmlns:xlink="http://www.w3.org/1999/xlink" xml:space="preserve" xmlns:serif="http://www.serif.com/" style="fill-rule:evenodd;clip-rule:evenodd;stroke-linejoin:round;stroke-miterlimit:2;">
    <path d="M71.934,122.129L71.927,122.133C65.839,125.648 58.757,126.574 51.983,124.759C45.198,122.941 39.516,118.595 36.005,112.514C32.495,106.434 31.568,99.351 33.386,92.566L54.807,12.646C56.1,7.726 59.27,3.854 63.734,1.756C67.847,-0.187 72.824,-0.529 77.758,0.786C87.934,3.52 94.205,13.273 91.724,22.532L73.75,89.611C72.247,95.244 66.484,98.091 60.031,96.381C53.91,94.74 47.4,89.023 48.83,83.664L63.537,28.799L70.843,30.757L56.15,85.613C55.842,86.761 59.818,88.487 61.996,89.07C62.624,89.239 65.829,89.97 66.436,87.658L84.418,20.574C85.813,15.344 81.95,9.747 75.8,8.093C72.603,7.236 69.472,7.413 66.98,8.591C64.543,9.728 62.851,11.825 62.112,14.584L40.692,94.504C39.389,99.297 40.062,104.417 42.558,108.711C45.058,113.043 49.097,116.137 53.94,117.434C58.77,118.729 63.807,118.074 68.139,115.572C72.478,113.067 75.583,109.032 76.866,104.198L84.744,74.791L92.05,76.749L84.164,106.159C82.358,112.948 78.015,118.619 71.934,122.129Z" style="fill:rgb(91,96,115);fill-rule:nonzero;"/>
    <g id="Ebene1">
        <clipPath id="_clip1">
            <path d="M71.934,122.129L71.927,122.133C65.839,125.648 58.757,126.574 51.983,124.759C45.198,122.941 39.516,118.595 36.005,112.514C32.495,106.434 31.568,99.351 33.386,92.566L54.807,12.646C56.1,7.726 59.27,3.854 63.734,1.756C67.847,-0.187 72.824,-0.529 77.758,0.786C87.934,3.52 94.205,13.273 91.724,22.532L73.75,89.611C72.247,95.244 66.484,98.091 60.031,96.381C53.91,94.74 47.4,89.023 48.83,83.664L63.537,28.799L70.843,30.757L56.15,85.613C55.842,86.761 59.818,88.487 61.996,89.07C62.624,89.239 65.829,89.97 66.436,87.658L84.418,20.574C85.813,15.344 81.95,9.747 75.8,8.093C72.603,7.236 69.472,7.413 66.98,8.591C64.543,9.728 62.851,11.825 62.112,14.584L40.692,94.504C39.389,99.297 40.062,104.417 42.558,108.711C45.058,113.043 49.097,116.137 53.94,117.434C58.77,118.729 63.807,118.074 68.139,115.572C72.478,113.067 75.583,109.032 76.866,104.198L84.744,74.791L92.05,76.749L84.164,106.159C82.358,112.948 78.015,118.619 71.934,122.129Z" clip-rule="nonzero"/>
        </clipPath>
        <g clip-path="url(#_clip1)">
            <g transform="matrix(0.301897,0.0694853,-0.160431,0.697035,77.4746,26.2555)">
                <rect x="39.519" y="62.727" width="73.612" height="9.66" style="fill:rgb(219,68,55);"/>
            </g>
            <g transform="matrix(0.301897,0.0694853,-0.160431,0.697035,75.9248,32.9891)">
                <rect x="39.519" y="62.727" width="73.612" height="9.66" style="fill:rgb(247,147,41);"/>
            </g>
            <g transform="matrix(0.301897,0.0694853,-0.160431,0.697035,74.3749,39.7227)">
                <rect x="39.519" y="62.727" width="73.612" height="9.66" style="fill:rgb(253,221,78);"/>
            </g>
            <g transform="matrix(0.301897,0.0694853,-0.160431,0.697035,72.8251,46.4564)">
                <rect x="39.519" y="62.727" width="73.612" height="9.66" style="fill:rgb(124,179,66);"/>
            </g>
            <g transform="matrix(0.301897,0.0694853,-0.160431,0.697035,71.2753,53.19)">
                <rect x="39.519" y="62.727" width="73.612" height="9.66" style="fill:rgb(46,130,189);"/>
            </g>
            <g transform="matrix(0.301897,0.0694853,-0.160431,0.697035,69.7254,59.9236)">
                <rect x="39.519" y="62.727" width="73.612" height="9.66" style="fill:rgb(149,49,166);"/>
            </g>
        </g>
    </g>
    <g>
        <path d="M49.315,42.212C54.885,42.2 59.399,36.791 59.386,30.139C59.374,23.462 54.836,18.078 49.266,18.09C43.682,18.103 39.156,23.512 39.169,30.189C39.194,36.841 43.732,42.225 49.315,42.212Z" style="fill:rgb(229,229,229);fill-rule:nonzero;"/>
        <path d="M49.3,37.196C52.553,37.189 55.19,34.03 55.182,30.144C55.175,26.244 52.524,23.099 49.27,23.107C46.01,23.114 43.366,26.273 43.373,30.173C43.388,34.059 46.038,37.203 49.299,37.196L49.3,37.196Z" style="fill:rgb(47,47,47);fill-rule:nonzero;"/>
    </g>
    <g>
        <path d="M85.47,42.212C91.041,42.2 95.555,36.791 95.542,30.139C95.53,23.462 90.992,18.078 85.421,18.09C79.838,18.103 75.312,23.512 75.325,30.189C75.35,36.841 79.888,42.225 85.471,42.212L85.47,42.212Z" style="fill:rgb(229,229,229);fill-rule:nonzero;"/>
        <path d="M85.455,37.196C88.709,37.189 91.345,34.03 91.338,30.144C91.331,26.244 88.68,23.099 85.426,23.107C82.166,23.114 79.522,26.273 79.529,30.173C79.543,34.059 82.194,37.203 85.455,37.196Z" style="fill:rgb(47,47,47);fill-rule:nonzero;"/>
    </g>
</svg>
